X:1
T:D Major                   Jacob Kimball, 1793
T:Nahum Tate nd Nicholas Brady, 1698 New Version (Psalm 149) 10 10. 11 11.
T:Ashburnham
T:Transcribed from Kimball's Rural Harmony, 1793.
%%score [ 1 2 3 4 ]
L:1/8
Q:1/4=180
M:3/4
K:D
V:1 treble nm="Tr." snm="Tr."
V:2 treble nm="C." snm="C."
V:3 treble-8 nm="T." snm="T."
V:4 bass nm="B." snm="B."
V:1
"^Vivace""^2. Let  them  his  great name  ex – tol  in  the dance;   With  timbrel  and  harp  his  prai –ses ex–press:  Who always takes pleasure his""^1. O  praise  ye  the Lord, prepare your glad voice,   His   praise  in  the  great  as – sem – bly  to  sing:     In   our  great  cre–a–tor  let" F2 | %1
 A2 d2 c2 | B4 A2 | F2 E2 A2 | A4 F2 | B2 G2 A2 | A4 A2 | d2 A2 B2 | c4 c2 | e2 c2 c2 | d2 A2 c2 | %11
"^1. Is – rael   re – joice;      And   children  of    Zi – on   be      glad      in       their    King.""^2. saints to  ad–vance,     And   with  his  sal–va–tion  the   hum –  ble      to         bless." d2 e2 d2 | %12
 c4 c2 | A2 G2 F2 | A2 A2 G2 | FG A2 A2 | A6 |] %17
V:2
"^3. With glo–ry  a – dorned,  his people shall sing   To God, who their beds with safety does shield: Their mouths filled with praises of" D2 | %1
 F2 F2 E2 | D4 F2 | D2 E2 D2 | C4 D2 | D2 E2 F2 | E4 F2 | F2 E2 D2 | E4 E2 | A2 A2 A2 | A2 F2 A2 | %11
"^3. him their great king;     While  a   two –ed –ged  sword  their right hand shall  wield." A2 A2 A2 | %12
 A4 E2 | F2 G2 A2 | E2 D2 E2 | FB A2 G2 | F6 |] %17
V:3
"^5.  Thus shall they make good, when them they destroy, The dreadful decree which God does proclaim:  Such honour and  triumph  his""^4.   Just  ven–geance  to  take  for  in–ju–ries    past;     To   punish  those  lands  for  ruin  designed;  With chains, as  their captives,  to" A2 | %1
 d2 A2 G2 | F4 d2 | A2 G2 F2 | E4 A2 | B2 c2 d2 | c4 d2 | A2 A2 ^G2 | A4 A2 | c2 e2 g2 | f2 d2 e2 | %11
"^4.   tie  their  kings  fast,   With  fet– ters  of     ir–on    their   no –  bles       to       bind.""^5.  saints  shall  en –  joy,     O  there–fore  for   ev–er    ex   –   alt       his    great    name!" f2 g2 f2 | %12
 e4 A2 | d2 c2 d2 | e2 f2 g2 | ag f2 e2 | d6 |] %17
V:4
 D,2 | D,2 D,2 A,,2 | B,,4 D,2 | D,2 C,2 D,2 | A,,4 F,2 | G,2 E,2 D,2 | A,4 D,2 | D,2 C,2 B,,2 | %8
 A,,4 A,2 | A,2 A,2 A,2 | D2 D,2 A,2 | D2 C2 D2 | A,4 A,2 | F,2 E,2 D,2 | A,2 F,2 E,2 | %15
 D,E, F,G, A,2 | D,6 |] %17

